X: 241
T:Strop the Razor
D:Conal O Grada, The Top of Coom
B:The Playing of Willie Clancy
Z:Gordon Turnbull, Edinburgh &lt;gturnbull@oblique-design.demon.co.uk&gt;
M:6/8
L:1/8
R:Jig
K:G
BGG AGG | BGG AGE | DGG GFG | DGG GFG |
BGG AGG | BGG AGE | D2E F2G | ADE FGA :||
dBB cAA | dBB cAA | DGG GFG | DGG GBc |
dBB cAA | dBB cAF | D2E F2G | ADE FGA :||
BAB cAc | dcd def | gfg gdB | gfg gdc |
BAB cAc | dcd dee | =f2f fdc | ~=f3 fdc :||
<end>
<start>
